X: 1
T: Sally Gardens
T: the Maids of the Mourne Shore
C: trad.
R: reel
Z: 2020 John Chambers <jc:trillian.mit.edu>
S: https://www.facebook.com/groups/Fiddletuneoftheday/
S: https://www.facebook.com/groups/Fiddletuneoftheday/photos/
M: C|
L: 1/8
K: G
|:\
"G"G2DG B2GB | dBeB dBAB | d2Bd "C"efge | "D"dBAB "Em"GEDE | "G"G2DG B2GB | dBeB dBAB |
d2Bd "C"efge |1 "D"dBAB "G"G2 (3DEF :|2 "D"dBAB "G"G2 Bc |: "G"dggf g2dg | g2bg aged | "Am"eaag a2ea |
"D"a2bg ageg | "G"dggf g2dg | g2bg ageg | "G"d2Bd efge |1 "D"dBAB "G"G2 Bc :|2 "D"dBAB "G"GABA |] 
